X:52
T:Francis Beaton's Reel
C:D.A. Beaton
R:Reel
M:C|
%%printtempo 0
Q:180
K:D
G|:\
"D"(F<A)AB AFAd| "G"g2fd edBd|1 "D"(f<a)af abdA|"G"BdAF "D"D/D/D D2:|2
"D"(f<a)af abde|"A"faef "D"d2|:\
ef|\
"G"gbge "D"fafd| "A"e/e/e fe "G"dBBd|1
"G"gbge "D"fafd| "A7"gece "D"d2:|2 "D"(F<A)AF ABde| "A"faef "D"d2 d|]
